X: 5209
T: the Aviator
P: Among the Clouds
C: Anselm Lingnau
S: RSCDS 52-09
R: jig
Z: 2019 John Chambers <jc:trillian.mit.edu>
M: 6/8
L: 1/8
K: G
|: D |\
"G"G2D B,>CD | "Am"CDE "D7"DEF | "Em"G2G "A7"E>FG | "D7"FGA "G7"GAB |\
"C"c2e "D7"A>Bc | "G"B2d "Em7"g2f | "A7"e2a "D7"f>ed | "G"g3 G2 :|
a |\
"G"b>ab "B/G"gab | "D"a>ga "Bm"fga | "Em"g>fg "A7"efg | "D"f>ef "F#/D7"d2d |\
"G"b2b "A7"gab | "D"a2a "Bm"f>ed | "A7"e2e "D7"a>gf | "G"g3 g2 ||
"D"a |\
"Em"b>ab "A7"gab | "D"a>ga fed | "G"e>de "D"cde | "Bm"d>cB "Em"BAG |\
"Am7"c>Bc "D7"AGF | "D#/B7"B>AB "Em"G2D | "A7"E2A "D7"F>ED | "G"G3 G2 :|
